public/primaries/BellOff.svg

<svg id="Layer_1" data-name="Layer 1" xmlns="http://www.w3.org/2000/svg" width="64" height="64" viewBox="0 0 64 64">
  <title>Icons 300</title>
  <path d="M52.2162,43.3137a5.0021,5.0021,0,0,1-3.7345-4.6L46.7291,23.9715A14.7333,14.7333,0,0,0,35.9433,11.5344a3.9764,3.9764,0,0,0-7.9034,0,14.87,14.87,0,0,0-8.11,5.6014.99.99,0,0,0,.1189,1.2747L49.04,47.4182a1.9991,1.9991,0,0,0,1.4139.586h1.1142a2.386,2.386,0,0,0,.6477-4.69ZM37.491,50.0043H26.4921a.499.499,0,0,0-.5053.5263,6.0305,6.0305,0,0,0,12.01,0A.4991.4991,0,0,0,37.491,50.0043Zm-.4485-3.2806-19.01-19.02a.75.75,0,0,0-1.2749.4418L15.5017,38.7138a5.002,5.002,0,0,1-3.7344,4.6,2.386,2.386,0,0,0,.6475,4.69H36.5123A.75.75,0,0,0,37.0425,46.7237ZM11.4178,12.5449a2.0014,2.0014,0,0,0-2.83,2.8312l40.02,40.0385a2.0014,2.0014,0,0,0,2.83-2.8313Z"/>
</svg>

<svg data-name="Layer 1" xmlns="http://www.w3.org/2000/svg" width="64" height="64" viewBox="0 0 64 64"><title>Icons 300</title><path d="M52.216 43.314a5.002 5.002 0 0 1-3.734-4.6l-1.753-14.742a14.733 14.733 0 0 0-10.786-12.438 3.976 3.976 0 0 0-7.903 0 14.87 14.87 0 0 0-8.11 5.602.99.99 0 0 0 .119 1.275L49.04 47.418a2 2 0 0 0 1.414.586h1.114a2.386 2.386 0 0 0 .648-4.69zm-14.725 6.69H26.492a.499.499 0 0 0-.505.527 6.03 6.03 0 0 0 12.01 0 .5.5 0 0 0-.506-.527zm-.449-3.28l-19.01-19.02a.75.75 0 0 0-1.274.442l-1.256 10.568a5.002 5.002 0 0 1-3.735 4.6 2.386 2.386 0 0 0 .648 4.69h24.097a.75.75 0 0 0 .53-1.28zm-25.624-34.18a2.001 2.001 0 0 0-2.83 2.832l40.02 40.039a2.001 2.001 0 0 0 2.83-2.832z"/></svg>
